X: 17
note.
M:C
L:1/8
K:D
u"Slow"((3A,B,C)|:v(D>D) (F>.A) ((3[dF][dF][dF]) ((3dba)|\
((3^gaf) ((3cdF) ((3EA,C) (E >.F)|\
"3"QG2">"[c2G2] "3"QF2 (.[BF]>.f)|[1 ((3efd) ((3cdB) ((3ABG) ((3FGE):|[2\
 (^A>A) ((3ABc) B2 ((3">"=A">"B">"c)|]\
v(d>d) ((3cde) ">"d2 ((3Bc^d)|(e>.e) ((3^def) ">"e3f|Qg2 B>g Qf2 A>f|\
((3efd) ((3cdB) ((3ABG) ((3FGE)|\
e>e ((3^def) ">"e3f|">>> SEGUE"((3gfg) ((3bag) ((3fge) ((3cdB)|\
((3ABG) ((3FGE) D2|]


